X: 40344
T: Tom Byrne's
R: reel
M: 4/4
K: Gmajor
|:F|GEDG EDB,E|DB,A,C B,A,G,A,|B,DGB AGBG|A/2B/2A BG AGEF|
GEDG EDB,E|DB,A,C B,A,G,A,|B,DGB AGBG|AGEF ~G3:|
|:A|BedB AE E/D/E|GDEB, DB,G,A,|B,DGB AGBG|A/2B/2A BGAG E/2F/2G|
[1 DGBd B^ABd|cABG AGEF|G z DB, G,B,De|dBAB G3:|
[2 DGBd ~B3 d|cdBd AGEF|GBDG G,B,De|dBAB G3||

